symbolic/64x64/apps/timidity.svg

<svg xmlns="http://www.w3.org/2000/svg" width="64" height="64" version="1">
 <rect style="opacity:0.2" width="57" height="57" x="3" y="4" rx="2.85" ry="2.85"/>
 <rect style="fill:#7d7d7d" width="57" height="57" x="3" y="3" rx="2.85" ry="2.85"/>
 <path style="opacity:0.2" d="m 14,9 v 11 h 4 v 9 h 11 v -9 h 4 V 9 Z m 25,0 v 4 H 50 V 9 Z m 0,7 V 29 H 50 V 16 Z M 8.25,33 C 7.0035,33 6,33.929818 6,35.083984 V 55.916016 C 6,57.070182 7.0035,58 8.25,58 h 1.5 C 10.9965,58 12,57.070182 12,55.916016 V 35.083984 C 12,33.929818 10.9965,33 9.75,33 Z m 9,0 C 16.0035,33 15,33.929818 15,35.083984 V 55.916016 C 15,57.070182 16.0035,58 17.25,58 h 1.5 C 19.9965,58 21,57.070182 21,55.916016 V 35.083984 C 21,33.929818 19.9965,33 18.75,33 Z m 9,0 C 25.0035,33 24,33.929818 24,35.083984 V 55.916016 C 24,57.070182 25.0035,58 26.25,58 h 1.5 C 28.9965,58 30,57.070182 30,55.916016 V 35.083984 C 30,33.929818 28.9965,33 27.75,33 Z m 9,0 C 34.0035,33 33,33.929818 33,35.083984 V 55.916016 C 33,57.070182 34.0035,58 35.25,58 h 1.5 C 37.9965,58 39,57.070182 39,55.916016 V 35.083984 C 39,33.929818 37.9965,33 36.75,33 Z m 9,0 C 43.0035,33 42,33.929818 42,35.083984 V 55.916016 C 42,57.070182 43.0035,58 44.25,58 h 1.5 C 46.9965,58 48,57.070182 48,55.916016 V 35.083984 C 48,33.929818 46.9965,33 45.75,33 Z m 9,0 C 52.0035,33 51,33.929818 51,35.083984 V 55.916016 C 51,57.070182 52.0035,58 53.25,58 h 1.5 C 55.9965,58 57,57.070182 57,55.916016 V 35.083984 C 57,33.929818 55.9965,33 54.75,33 Z"/>
 <rect style="fill:#ffffff" width="6" height="25" x="6" y="32" rx="2.25" ry="2.083"/>
 <rect style="fill:#17d4e4" width="11" height="20" x="18" y="8"/>
 <rect style="fill:#17d4e4" width="11" height="19" x="8" y="-33" transform="rotate(90)"/>
 <rect style="fill:#17d4e4" width="11" height="13" x="39" y="15"/>
 <rect style="fill:#17d4e4" width="11" height="4" x="39" y="8"/>
 <rect style="fill:#ffffff" width="6" height="25" x="15" y="32" rx="2.25" ry="2.083"/>
 <rect style="fill:#ffffff" width="6" height="25" x="24" y="32" rx="2.25" ry="2.083"/>
 <rect style="fill:#ffffff" width="6" height="25" x="33" y="32" rx="2.25" ry="2.083"/>
 <rect style="fill:#ffffff" width="6" height="25" x="42" y="32" rx="2.25" ry="2.083"/>
 <rect style="fill:#ffffff" width="6" height="25" x="51" y="32" rx="2.25" ry="2.083"/>
 <rect style="fill:#4f4f4f" width="6" height="14" x="11" y="32" rx="2.25" ry="2.1"/>
 <rect style="fill:#4f4f4f" width="6" height="14" x="20" y="32" rx="2.25" ry="2.1"/>
 <rect style="fill:#4f4f4f" width="6" height="14" x="29" y="32" rx="2.25" ry="2.1"/>
 <rect style="fill:#4f4f4f" width="6" height="14" x="47" y="32" rx="2.25" ry="2.1"/>
 <path style="fill:#ffffff;opacity:0.1" d="M 5.8496094 3 C 4.2707094 3 3 4.2707094 3 5.8496094 L 3 6.8496094 C 3 5.2707094 4.2707094 4 5.8496094 4 L 57.150391 4 C 58.729291 4 60 5.2707094 60 6.8496094 L 60 5.8496094 C 60 4.2707094 58.729291 3 57.150391 3 L 5.8496094 3 z"/>
 <path style="opacity:0.2;fill:#ffffff" d="M 14 8 L 14 9 L 33 9 L 33 8 L 14 8 z M 39 8 L 39 9 L 50 9 L 50 8 L 39 8 z M 39 15 L 39 16 L 50 16 L 50 15 L 39 15 z"/>
</svg>

<svg xmlns="http://www.w3.org/2000/svg" width="64" height="64" version="1"><rect style="opacity:.2" width="57" height="57" x="3" y="4" rx="2.85" ry="2.85"/><rect style="fill:#7d7d7d" width="57" height="57" x="3" y="3" rx="2.85" ry="2.85"/><path style="opacity:.2" d="M14 9v11h4v9h11v-9h4V9zm25 0v4h11V9zm0 7v13h11V16zM8.25 33C7.003 33 6 33.93 6 35.084v20.832C6 57.07 7.003 58 8.25 58h1.5c1.246 0 2.25-.93 2.25-2.084V35.084C12 33.93 10.996 33 9.75 33zm9 0c-1.247 0-2.25.93-2.25 2.084v20.832C15 57.07 16.003 58 17.25 58h1.5c1.247 0 2.25-.93 2.25-2.084V35.084C21 33.93 19.997 33 18.75 33zm9 0c-1.247 0-2.25.93-2.25 2.084v20.832C24 57.07 25.003 58 26.25 58h1.5c1.247 0 2.25-.93 2.25-2.084V35.084C30 33.93 28.997 33 27.75 33zm9 0c-1.246 0-2.25.93-2.25 2.084v20.832C33 57.07 34.004 58 35.25 58h1.5c1.246 0 2.25-.93 2.25-2.084V35.084C39 33.93 37.996 33 36.75 33zm9 0c-1.246 0-2.25.93-2.25 2.084v20.832C42 57.07 43.004 58 44.25 58h1.5c1.246 0 2.25-.93 2.25-2.084V35.084C48 33.93 46.996 33 45.75 33zm9 0c-1.246 0-2.25.93-2.25 2.084v20.832C51 57.07 52.004 58 53.25 58h1.5c1.246 0 2.25-.93 2.25-2.084V35.084C57 33.93 55.996 33 54.75 33z"/><rect style="fill:#fff" width="6" height="25" x="6" y="32" rx="2.25" ry="2.083"/><path style="fill:#17d4e4" d="M18 8h11v20H18z"/><path style="fill:#17d4e4" transform="rotate(90)" d="M8-33h11v19H8z"/><path style="fill:#17d4e4" d="M39 15h11v13H39zM39 8h11v4H39z"/><rect style="fill:#fff" width="6" height="25" x="15" y="32" rx="2.25" ry="2.083"/><rect style="fill:#fff" width="6" height="25" x="24" y="32" rx="2.25" ry="2.083"/><rect style="fill:#fff" width="6" height="25" x="33" y="32" rx="2.25" ry="2.083"/><rect style="fill:#fff" width="6" height="25" x="42" y="32" rx="2.25" ry="2.083"/><rect style="fill:#fff" width="6" height="25" x="51" y="32" rx="2.25" ry="2.083"/><rect style="fill:#4f4f4f" width="6" height="14" x="11" y="32" rx="2.25" ry="2.1"/><rect style="fill:#4f4f4f" width="6" height="14" x="20" y="32" rx="2.25" ry="2.1"/><rect style="fill:#4f4f4f" width="6" height="14" x="29" y="32" rx="2.25" ry="2.1"/><rect style="fill:#4f4f4f" width="6" height="14" x="47" y="32" rx="2.25" ry="2.1"/><path style="fill:#fff;opacity:.1" d="M5.85 3A2.843 2.843 0 0 0 3 5.85v1C3 5.27 4.27 4 5.85 4h51.3C58.73 4 60 5.27 60 6.85v-1C60 4.27 58.73 3 57.15 3H5.85z"/><path style="opacity:.2;fill:#fff" d="M14 8v1h19V8H14zm25 0v1h11V8H39zm0 7v1h11v-1H39z"/></svg>
